svg/Pictogram/pictograms-aem-0092-cutting-severing_of_toes_or_foot-blade.svg

<?xml version="1.0" encoding="ISO-8859-1" standalone="yes"?>
<svg height="304.014" width="304.015">
  <metadata>
    <rdf:RDF xmlns:cc="http://web.resource.org/cc/" xmlns:dc="http://purl.org/dc/elements/1.1/" xmlns:rdf="http://www.w3.org/1999/02/22-rdf-syntax-ns#">
      <cc:Work rdf:about="">
        <dc:title></dc:title>
        <dc:description></dc:description>
        <dc:subject>
          <rdf:Bag>
            <rdf:li></rdf:li>
          </rdf:Bag>
        </dc:subject>
        <dc:publisher>
          <cc:Agent rdf:about="http://www.unece.org/trans/danger/publi/ghs/pictograms.html">
            <dc:title>Source: UNECE GHS of Classification and Labeling of Chemicals, Source: AEM Pictorial Database, Source: AEM Pictorial Database, Source: AEM Pictorial Database, Source: AEM Pictorial Database</dc:title>
          </cc:Agent>
        </dc:publisher>
        <dc:creator>
          <cc:Agent>
            <dc:title></dc:title>
          </cc:Agent>
        </dc:creator>
        <dc:rights>
          <cc:Agent>
            <dc:title></dc:title>
          </cc:Agent>
        </dc:rights>
        <dc:date></dc:date>
        <dc:format>image/svg+xml</dc:format>
        <dc:type rdf:resource="http://purl.org/dc/dcmitype/StillImage"/>
        <cc:license rdf:resource="http://en.wikipedia.org/wiki/Public_domain"/>
        <dc:language>en</dc:language>
      </cc:Work>
    </rdf:RDF>
  </metadata>
  <defs><marker id="ArrowEnd" markerHeight="3" markerUnits="strokeWidth" markerWidth="4" orient="auto" refX="0" refY="5" viewBox="0 0 10 10"><path d="M 0 0 L 10 5 L 0 10 z"/></marker><marker id="ArrowStart" markerHeight="3" markerUnits="strokeWidth" markerWidth="4" orient="auto" refX="10" refY="5" viewBox="0 0 10 10"><path d="M 10 0 L 0 5 L 10 10 z"/></marker> </defs>
  <g id="g2958" transform="matrix(1.3532768,0,0,1.3532781,-53.207834,-52.192858)">
    <path d="M 233.925 50.3194L 163.62 50.3194L 163.62 184.186L 233.98 184.186L 233.925 50.3194" style="stroke:none; fill-rule:evenodd; fill:#000000"/>
    <path d="M 230.374 188.362L 165.151 188.362C 165.151 189.573 163.851 192.245 161.48 195.643L 163.222 198.819L 166.112 240.67L 136.323 218.971C 129.694 222.983 122.206 226.116 114.175 227.307C 95.4014 230.096 85.4954 236.342 85.4954 251.178L 151.737 251.178L 184.487 236.932L 184.487 250.991L 230.007 250.991L 230.007 236.374C 230.007 236.374 235.737 224.717 235.737 213.065C 235.737 200.479 230.374 188.452 230.374 188.362" style="stroke:none; fill-rule:evenodd; fill:#000000"/>
    <path d="M 49.9604 59.7414L 135.753 213.217L 161.429 231.924L 159.249 200.35L 76.7224 49.9914L 49.9764 49.9594L 49.9604 59.7414" style="stroke:none; fill-rule:evenodd; fill:#000000"/>
    <path d="M 29.6204 265.393L 2.62042 265.393" style="stroke:#000000; stroke-width:0.5; fill:none"/>
    <path d="M 38.6204 274.393L 38.6204 301.393" style="stroke:#000000; stroke-width:0.5; fill:none"/>
    <path d="M 29.6204 38.6204L 2.62042 38.6204" style="stroke:#000000; stroke-width:0.5; fill:none"/>
    <path d="M 38.6204 29.6204L 38.6204 2.62042" style="stroke:#000000; stroke-width:0.5; fill:none"/>
    <path d="M 274.394 38.6204L 301.394 38.6204" style="stroke:#000000; stroke-width:0.5; fill:none"/>
    <path d="M 265.394 29.6204L 265.394 2.62042" style="stroke:#000000; stroke-width:0.5; fill:none"/>
    <path d="M 274.394 265.393L 301.394 265.393" style="stroke:#000000; stroke-width:0.5; fill:none"/>
    <path d="M 265.394 274.393L 265.394 301.393" style="stroke:#000000; stroke-width:0.5; fill:none"/>
  </g>
</svg>

<svg viewBox="0 0 304.01 304.01"><g transform="matrix(1.35328 0 0 1.35328-53.21-52.19)" fill-rule="evenodd"><path d="m233.93 50.32h-70.31v133.87h70.36l-.055-133.87"/><path d="m230.37 188.36h-65.22c0 1.211-1.3 3.883-3.671 7.281l1.742 3.176 2.89 41.851-29.789-21.699c-6.629 4.01-14.12 7.145-22.15 8.336-18.774 2.789-28.68 9.04-28.68 23.871h66.24l32.75-14.246v14.06h45.52v-14.617c0 0 5.73-11.657 5.73-23.309 0-12.586-5.363-24.613-5.363-24.703"/><path d="m49.96 59.741l85.79 153.48 25.676 18.707-2.18-31.574-82.53-150.36-26.746-.032-.016 9.782"/></g></svg>
